img/image/design/input-phone.svg

<svg xmlns="http://www.w3.org/2000/svg" fill="none" viewBox="0 0.72 39 39">
<circle cx="19.5" cy="20.2168" r="19.2" fill="white" stroke="#E1E1E1" stroke-width="0.6"/>
<mask id="mask0_411_1940" style="mask-type:alpha" maskUnits="userSpaceOnUse" x="0" y="0" width="38" height="40">
<path d="M37.7 19.7168C37.7 24.8993 35.9678 29.8429 32.7713 33.4158C29.5799 36.9832 24.9172 39.1982 19.0143 38.9171C8.66607 38.4244 0.3 30.042 0.3 19.7168C0.3 9.38907 8.67228 1.0168 19 1.0168C29.3277 1.0168 37.7 9.38907 37.7 19.7168Z" fill="white" stroke="#E1E1E1" stroke-width="0.6"/>
</mask>
<g mask="url(#mask0_411_1940)">
<path d="M29.0742 24.47C27.6048 24.47 26.1621 24.2402 24.7949 23.7884C24.125 23.5599 23.3014 23.7695 22.8925 24.1894L20.194 26.2266C17.0644 24.556 15.1367 22.6289 13.4889 19.5228L15.4661 16.8946C15.9798 16.3816 16.164 15.6322 15.9433 14.9291C15.4895 13.5547 15.259 12.1127 15.259 10.6427C15.2591 9.58073 14.3952 8.7168 13.3333 8.7168H8.92581C7.86394 8.7168 7 9.58073 7 10.6426C7 22.8144 16.9023 32.7167 29.0742 32.7167C30.1361 32.7167 31 31.8528 31 30.7909V26.3958C30.9999 25.3339 30.136 24.47 29.0742 24.47Z" fill="#F3F3F7"/>
</g>
</svg>

<svg xmlns="http://www.w3.org/2000/svg" fill="none" viewBox="0 0.72 39 39"><circle cx="19.5" cy="20.217" r="19.2" fill="#fff" stroke="#E1E1E1" stroke-width=".6"/><mask id="a" style="mask-type:alpha" maskUnits="userSpaceOnUse" x="0" y="0" width="38" height="40"><path d="M37.7 19.717c0 5.182-1.732 10.126-4.929 13.699-3.191 3.567-7.854 5.782-13.757 5.501C8.666 38.424.3 30.042.3 19.717c0-10.328 8.372-18.7 18.7-18.7s18.7 8.372 18.7 18.7Z" fill="#fff" stroke="#E1E1E1" stroke-width=".6"/></mask><g mask="url(#a)"><path d="M29.074 24.47c-1.47 0-2.912-.23-4.28-.682-.669-.228-1.493-.018-1.902.401l-2.698 2.038c-3.13-1.671-5.057-3.598-6.705-6.704l1.977-2.628a1.94 1.94 0 0 0 .477-1.966 13.646 13.646 0 0 1-.684-4.286 1.928 1.928 0 0 0-1.926-1.926H8.926A1.928 1.928 0 0 0 7 10.643c0 12.171 9.902 22.074 22.074 22.074A1.928 1.928 0 0 0 31 30.79v-4.395a1.928 1.928 0 0 0-1.926-1.926Z" fill="#F3F3F7"/></g></svg>
